icons/vault-logo.svg

<?xml version="1.0" encoding="UTF-8"?>
<svg width="512px" height="184px" viewBox="0 0 512 184" version="1.1" xmlns="http://www.w3.org/2000/svg" xmlns:xlink="http://www.w3.org/1999/xlink" preserveAspectRatio="xMidYMid">
    <g fill-rule="evenodd">
        <path d="M511.144681,137.061035 C507.410298,138.641847 500.235547,139.787364 495.783306,139.787364 C483.00698,139.787364 476.550087,133.758129 476.550087,121.272 L476.550087,82.3779011 L466.07243,82.3779011 L466.07243,68.4560587 L476.550087,68.4560587 L476.550087,51.086212 L494.061214,48.6424438 L494.061214,68.4560587 L512,68.4560587 L510.854484,82.3779011 L494.061214,82.3779011 L494.061214,118.977149 C494.061214,122.711533 495.783306,125.151483 500.376827,125.151483 C502.961876,125.151483 506.115864,124.578724 509.132391,123.719587 L511.144681,137.064853 L511.144681,137.061035 Z M441.386552,138.35165 L441.386552,39.8868803 L458.897679,37.443112 L458.897679,138.35165 L441.386552,138.35165 Z M384.977507,68.4522403 L384.977507,117.251238 C384.977507,120.985621 386.55832,122.848995 390.575264,122.848995 C394.882406,122.848995 402.488634,120.267764 408.804248,116.968677 L408.804248,68.4484219 L426.315375,68.4484219 L426.315375,138.347831 L412.966291,138.347831 L411.244198,132.463695 C402.488634,136.770837 391.43822,139.783545 383.255414,139.783545 C371.632242,139.783545 367.46638,131.60074 367.46638,119.114611 L367.46638,68.4446035 L384.977507,68.4446035 L384.977507,68.4522403 Z M337.037647,111.943679 L324.123859,111.943679 C318.384822,111.943679 316.804009,113.524491 316.804009,118.835869 C316.804009,123.715769 318.384822,125.861703 323.833661,125.861703 C329.003759,125.861703 333.742378,124.143428 337.045284,122.276237 L337.045284,111.943679 L337.037647,111.943679 Z M354.548774,138.35165 L340.199272,138.35165 L338.908657,133.616849 C332.593043,137.778891 325.128095,139.787364 318.098443,139.787364 C305.318298,139.787364 299.86564,131.0318 299.86564,118.977149 C299.86564,104.768928 306.039974,99.3124515 320.248195,99.3124515 L337.041465,99.3124515 L337.041465,91.9849651 C337.041465,84.2336376 334.887895,81.5073086 323.692381,81.5073086 C317.376767,81.5073086 310.488396,82.3702643 304.317881,83.6608794 L302.16431,70.3117952 C308.762484,68.3033232 318.381004,67.0088897 326.132331,67.0088897 C348.095698,67.0088897 354.552592,74.7602172 354.552592,92.2751626 L354.552592,138.347831 L354.548774,138.35165 Z M277.760993,42.7544896 L296.562735,42.7544896 L268.001193,138.35165 L241.299206,138.35165 L212.737665,42.7544896 L231.539407,42.7544896 L254.648291,122.421335 L277.760993,42.7544896 Z M102.267884,79.2850069 L112.890639,79.2850069 L112.890639,68.6584333 L102.267884,68.6584333 L102.267884,79.2850069 Z M102.176242,63.3470557 L112.798998,63.3470557 L112.798998,52.7204821 L102.176242,52.7204821 L102.176242,63.3470557 Z M86.3299326,47.4091045 L96.9526878,47.4091045 L96.9526878,36.7825309 L86.3261142,36.7825309 L86.3261142,47.4091045 L86.3299326,47.4091045 Z M86.3299326,63.3470557 L96.9526878,63.3470557 L96.9526878,52.7204821 L86.3261142,52.7204821 L86.3261142,63.3470557 L86.3299326,63.3470557 Z M86.3299326,79.2850069 L96.9526878,79.2850069 L96.9526878,68.6546149 L86.3261142,68.6546149 L86.3261142,79.2811885 L86.3299326,79.2850069 L86.3299326,79.2850069 Z M86.3299326,95.2229581 L96.9526878,95.2229581 L96.9526878,84.5963845 L86.3261142,84.5963845 L86.3261142,95.2191397 L86.3299326,95.2229581 Z M70.3919814,47.4052861 L81.018555,47.4052861 L81.018555,36.7825309 L70.3919814,36.7825309 L70.3919814,47.4091045 L70.3919814,47.4052861 Z M70.3919814,63.3432373 L81.018555,63.3432373 L81.018555,52.7166637 L70.3919814,52.7166637 L70.3919814,63.3432373 Z M70.3919814,79.2811885 L81.018555,79.2811885 L81.018555,68.6546149 L70.3919814,68.6546149 L70.3919814,79.2811885 Z M102.176242,47.4052861 L112.798998,47.4052861 L112.798998,36.7825309 L102.176242,36.7825309 L102.176242,47.4091045 L102.176242,47.4052861 Z M0,0 L91.3091104,183.28262 L183.28262,0 L0,0 Z" fill="#000000"></path>
    </g>
</svg>

<svg xmlns="http://www.w3.org/2000/svg" viewBox="0 0 512 183.283">
  <path fill-rule="evenodd" d="M511.145 137.061c-3.735 1.58-10.91 2.726-15.362 2.726-12.776 0-19.233-6.029-19.233-18.515V82.378h-10.478V68.456h10.478v-17.37l17.511-2.444v19.814H512l-1.146 13.922h-16.793v36.6c0 3.734 1.722 6.173 6.316 6.173 2.585 0 5.739-.572 8.755-1.431l2.013 13.345zm-69.758 1.29V39.888l17.51-2.444v100.909zm-56.41-69.899v48.8c0 3.734 1.581 5.597 5.598 5.597 4.307 0 11.914-2.581 18.23-5.88v-48.52h17.51v69.899h-13.349l-1.722-5.884c-8.755 4.307-19.806 7.32-27.989 7.32-11.623 0-15.789-8.183-15.789-20.67v-50.67h17.512zm-47.94 43.492h-12.913c-5.74 0-7.32 1.58-7.32 6.892 0 4.88 1.58 7.026 7.03 7.026 5.17 0 9.908-1.719 13.211-3.586v-10.332zm17.512 26.408h-14.35l-1.29-4.735c-6.316 4.162-13.78 6.17-20.81 6.17-12.78 0-18.233-8.755-18.233-20.81 0-14.208 6.174-19.665 20.382-19.665h16.793v-7.327c0-7.751-2.153-10.478-13.349-10.478-6.315 0-13.204.863-19.374 2.154l-2.154-13.35c6.598-2.008 16.217-3.302 23.968-3.302 21.964 0 28.42 7.751 28.42 25.266v46.073zM277.76 42.754h18.802L268 138.352H241.3l-28.561-95.598h18.801l23.11 79.667zM102.268 79.285h10.623V68.658h-10.623zm-.092-15.938H112.8V52.72h-10.623zM86.33 47.41h10.623V36.783H86.326v10.626zm0 15.938h10.623V52.72H86.326v10.627zm0 15.938h10.623v-10.63H86.326V79.28l.004.004zm0 15.938h10.623V84.596H86.326V95.22zM70.392 47.405h10.627V36.783H70.392v10.626zm0 15.938h10.627V52.717H70.392zm0 15.938h10.627V68.655H70.392zm31.784-31.876H112.8V36.783h-10.623v10.626zM0 0l91.31 183.283L183.282 0z"/>
</svg>
